X:101
T:As Polly walked out - Smith
C:Taken down from H. Smith, by H.Fl.S.
%%VWML:SBG-1-1-501-0
F:http://www.vwml.org/record/SBG/1/1/501
Z:Original Sibleius Transcription by Martin and Shan Graebe
L:1/8
M:3/4
I:linebreak $
K:C
Gce | c2 cB A/B/c/A/ | GE C2 z c | cA G2 GF | EF G2 z G | ce g2 ec |$ c/d/e/c/ A2 G G | cegecB | 
A/B/c/A/ GE CG | EG c2 ec GB | c2  z |] 
T:As Polly walked out - Parsons
T:Taken down from Jas. Parsons by F.W.B.  Mch 1891
L:1/8
M:3/4
I:linebreak $
K:C
G2 | ce c2 BA | cA G2 E G | A2 F2 ED | EF G3 G | EG f2 (3efg | ec AG G3/2 G/ |$ EG f2 ec | BB c4 | 
Bd f2 (3efg | ec A2 G3/2 F/ | EG e3 c | Bd c4 |] 



